X:12601
T:Lemmy Brazil's No.1
R:Hornpipe
C:Trad.
O:England
Z:Paul Hardy's Annex Tunebook 2015 (see www.paulhardy.net). Creative Commons cc by-nc-sa licenced.
M:4/4
L:1/8
Q:1/4=130
K:G
ef|"G"gdBA GBdg|"C"edcd e2fe|"G"dgfe "D"dB (3cBA|"G"GBde "D"d2ef|
"G"gdBA GBdg|"C"edcd e2fe|"G"dgfe "D"dB (3cBA|"G"G2g2g2:|
|:B2|"G"(3BdB G2B4|"C"c2A2 cdef|"G"ggfe dBGd|"C"e2dB "D"A4|
"G"(3BdB G2B4|"C"c2A2cdef|"G"ggfe dB (3GAB|"D"A2F2"G"G2:|

